X: 173
T: Mr Alexr. Campbell's Strathspey
C: by John Pringle
B: John Pringle "Collection of Reels Strathspeys & Jigs", 1801 p.17#3
Z: 2011 John Chambers <jc:trillian.mit.edu>
R: strathspey
M: C
L: 1/8
K: G
V: 1
   D | G<GBG E>FGD | G<G~B>c d2~d>e | G<GBG E>FG>E | D<D{c}B>A {A}G2G :|
|: c | B<G~E>F G>BAd | BGce ~d3f | g>de>B c>AB>G | D<D{c}B>A {A}G2G :|
V: 2 clef=bass middle=d
   z | g2g2 c2g2 | g2g2 [b2g2][b2g2] | g2g2 c2c2 | d2d2 G2G :|
|: z | g2G2 g2d2 | g2g2 d2d2 | g2c2 A2G2 | d2d2 G2G :|

%%sep 2 1 500

